build/images/page-6/fields/fields-bg.svg

<svg width="1244" height="108" viewBox="0 0 1244 108" fill="none" xmlns="http://www.w3.org/2000/svg">
<path d="M124.562 106.133V82.2158" stroke="#00A79E" stroke-width="2.03453" stroke-miterlimit="10" stroke-linecap="round" stroke-linejoin="round"/>
<path d="M121.184 75.2595C121.184 79.274 124.563 82.5277 124.563 82.5277C124.563 82.5277 127.942 79.274 127.942 75.2595C127.942 71.2449 124.563 67.9912 124.563 67.9912C124.563 67.9912 121.184 71.2449 121.184 75.2595Z" stroke="#00A79E" stroke-width="2.03453" stroke-miterlimit="10" stroke-linecap="round" stroke-linejoin="round"/>
<path d="M129.079 83.1582C125.791 85.4409 125.044 90.0858 125.044 90.0858C125.044 90.0858 129.634 91.0227 132.928 88.74C136.217 86.4574 136.964 81.8125 136.964 81.8125C136.964 81.8125 132.368 80.8756 129.079 83.1582Z" stroke="#00A79E" stroke-width="2.03453" stroke-miterlimit="10" stroke-linecap="round" stroke-linejoin="round"/>
<path d="M129.079 94.1001C125.791 96.3828 125.044 101.028 125.044 101.028C125.044 101.028 129.634 101.965 132.928 99.6819C136.217 97.3993 136.964 92.7544 136.964 92.7544C136.964 92.7544 132.368 91.8175 129.079 94.1001Z" stroke="#00A79E" stroke-width="2.03453" stroke-miterlimit="10" stroke-linecap="round" stroke-linejoin="round"/>
<path d="M120.527 83.1582C123.815 85.4409 124.562 90.0858 124.562 90.0858C124.562 90.0858 119.972 91.0227 116.678 88.74C113.39 86.4574 112.642 81.8125 112.642 81.8125C112.642 81.8125 117.238 80.8756 120.527 83.1582Z" stroke="#00A79E" stroke-width="2.03453" stroke-miterlimit="10" stroke-linecap="round" stroke-linejoin="round"/>
<path d="M120.527 94.1001C123.815 96.3828 124.562 101.028 124.562 101.028C124.562 101.028 119.972 101.965 116.678 99.6819C113.39 97.3993 112.642 92.7544 112.642 92.7544C112.642 92.7544 117.238 91.8175 120.527 94.1001Z" stroke="#00A79E" stroke-width="2.03453" stroke-miterlimit="10" stroke-linecap="round" stroke-linejoin="round"/>
<path d="M888.92 106.133V82.2158" stroke="#00A79E" stroke-width="2.03453" stroke-miterlimit="10" stroke-linecap="round" stroke-linejoin="round"/>
<path d="M885.541 75.2595C885.541 79.274 888.92 82.5277 888.92 82.5277C888.92 82.5277 892.299 79.274 892.299 75.2595C892.299 71.2449 888.92 67.9912 888.92 67.9912C888.92 67.9912 885.541 71.2449 885.541 75.2595Z" stroke="#00A79E" stroke-width="2.03453" stroke-miterlimit="10" stroke-linecap="round" stroke-linejoin="round"/>
<path d="M893.437 83.1582C890.148 85.4409 889.401 90.0858 889.401 90.0858C889.401 90.0858 893.992 91.0227 897.286 88.74C900.574 86.4574 901.321 81.8125 901.321 81.8125C901.321 81.8125 896.725 80.8756 893.437 83.1582Z" stroke="#00A79E" stroke-width="2.03453" stroke-miterlimit="10" stroke-linecap="round" stroke-linejoin="round"/>
<path d="M893.437 94.1001C890.148 96.3828 889.401 101.028 889.401 101.028C889.401 101.028 893.992 101.965 897.286 99.6819C900.574 97.3993 901.321 92.7544 901.321 92.7544C901.321 92.7544 896.725 91.8175 893.437 94.1001Z" stroke="#00A79E" stroke-width="2.03453" stroke-miterlimit="10" stroke-linecap="round" stroke-linejoin="round"/>
<path d="M884.884 83.1582C888.173 85.4409 888.92 90.0858 888.92 90.0858C888.92 90.0858 884.33 91.0227 881.035 88.74C877.747 86.4574 877 81.8125 877 81.8125C877 81.8125 881.596 80.8756 884.884 83.1582Z" stroke="#00A79E" stroke-width="2.03453" stroke-miterlimit="10" stroke-linecap="round" stroke-linejoin="round"/>
<path d="M884.884 94.1001C888.173 96.3828 888.92 101.028 888.92 101.028C888.92 101.028 884.33 101.965 881.035 99.6819C877.747 97.3993 877 92.7544 877 92.7544C877 92.7544 881.596 91.8175 884.884 94.1001Z" stroke="#00A79E" stroke-width="2.03453" stroke-miterlimit="10" stroke-linecap="round" stroke-linejoin="round"/>
<path d="M45.7939 105.309V57.1455" stroke="#00A79E" stroke-width="2.03453" stroke-miterlimit="10" stroke-linecap="round" stroke-linejoin="round"/>
<path d="M42.6981 50.786C42.6981 54.4599 45.7885 57.4353 45.7885 57.4353C45.7885 57.4353 48.8789 54.4599 48.8789 50.786C48.8789 47.1122 45.7885 44.1367 45.7885 44.1367C45.7885 44.1367 42.6981 47.1122 42.6981 50.786Z" stroke="#00A79E" stroke-width="2.03453" stroke-miterlimit="10" stroke-linecap="round" stroke-linejoin="round"/>
<path d="M49.9209 58.0089C46.9098 60.0986 46.2306 64.3403 46.2306 64.3403C46.2306 64.3403 50.4303 65.1977 53.4415 63.1081C56.4526 61.0185 57.1318 56.7767 57.1318 56.7767C57.1318 56.7767 52.9321 55.9193 49.9209 58.0089Z" stroke="#00A79E" stroke-width="2.03453" stroke-miterlimit="10" stroke-linecap="round" stroke-linejoin="round"/>
<path d="M49.9209 68.8888C46.9098 70.9784 46.2306 75.2201 46.2306 75.2201C46.2306 75.2201 50.4303 76.0776 53.4415 73.988C56.4526 71.8983 57.1318 67.6566 57.1318 67.6566C57.1318 67.6566 52.9321 66.7992 49.9209 68.8888Z" stroke="#00A79E" stroke-width="2.03453" stroke-miterlimit="10" stroke-linecap="round" stroke-linejoin="round"/>
<path d="M42.1036 58.0089C45.1147 60.0986 45.7939 64.3403 45.7939 64.3403C45.7939 64.3403 41.5942 65.1977 38.583 63.1081C35.5719 61.0185 34.8927 56.7767 34.8927 56.7767C34.8927 56.7767 39.0924 55.9193 42.1036 58.0089Z" stroke="#00A79E" stroke-width="2.03453" stroke-miterlimit="10" stroke-linecap="round" stroke-linejoin="round"/>
<path d="M42.1036 68.8888C45.1147 70.9784 45.7939 75.2201 45.7939 75.2201C45.7939 75.2201 41.5942 76.0776 38.583 73.988C35.5719 71.8983 34.8927 67.6566 34.8927 67.6566C34.8927 67.6566 39.0924 66.7992 42.1036 68.8888Z" stroke="#00A79E" stroke-width="2.03453" stroke-miterlimit="10" stroke-linecap="round" stroke-linejoin="round"/>
<path d="M49.9209 80.7165C46.9098 82.8061 46.2306 87.0478 46.2306 87.0478C46.2306 87.0478 50.4303 87.9052 53.4415 85.8156C56.4526 83.726 57.1318 79.4843 57.1318 79.4843C57.1318 79.4843 52.9321 78.6268 49.9209 80.7165Z" stroke="#00A79E" stroke-width="2.03453" stroke-miterlimit="10" stroke-linecap="round" stroke-linejoin="round"/>
<path d="M42.1036 80.7165C45.1147 82.8061 45.7939 87.0478 45.7939 87.0478C45.7939 87.0478 41.5942 87.9052 38.583 85.8156C35.5719 83.726 34.8927 79.4843 34.8927 79.4843C34.8927 79.4843 39.0924 78.6268 42.1036 80.7165Z" stroke="#00A79E" stroke-width="2.03453" stroke-miterlimit="10" stroke-linecap="round" stroke-linejoin="round"/>
<g clip-path="url(#clip0)">
<path d="M262.7 50.2766V105.157" stroke="#00A99E" stroke-width="2" stroke-miterlimit="10" stroke-linecap="round" stroke-linejoin="round"/>
<path d="M262.3 71.7367C271.302 71.7367 278.6 64.439 278.6 55.4367C278.6 46.4345 271.302 39.1367 262.3 39.1367C253.298 39.1367 246 46.4345 246 55.4367C246 64.439 253.298 71.7367 262.3 71.7367Z" stroke="#00A99E" stroke-width="2" stroke-miterlimit="10" stroke-linecap="round" stroke-linejoin="round"/>
<path d="M293.83 79.9868V105.107" stroke="#00A99E" stroke-width="2" stroke-miterlimit="10" stroke-linecap="round" stroke-linejoin="round"/>
<path d="M293.64 91.817C299.422 91.817 304.11 87.1294 304.11 81.347C304.11 75.5645 299.422 70.877 293.64 70.877C287.858 70.877 283.17 75.5645 283.17 81.347C283.17 87.1294 287.858 91.817 293.64 91.817Z" stroke="#00A99E" stroke-width="2" stroke-miterlimit="10" stroke-linecap="round" stroke-linejoin="round"/>
</g>
<path opacity="0.25" d="M474.303 105.911C474.303 105.911 499.469 100.502 489.634 55.0469C489.634 55.0469 462.116 71.4014 474.303 105.911Z" fill="#00A99E"/>
<path d="M475.263 103.893C475.263 103.893 495.561 105.908 500.535 69.5237C500.526 69.5281 475.5 75.1377 475.263 103.893Z" stroke="#00A99E" stroke-width="2" stroke-miterlimit="10" stroke-linecap="round" stroke-linejoin="round"/>
<path d="M476.117 102.947C476.768 101.97 496.309 74.4691 496.309 74.4691" stroke="#00A99E" stroke-width="2" stroke-miterlimit="10" stroke-linecap="round" stroke-linejoin="round"/>
<path d="M492.122 75.2888L491.838 80.7805" stroke="#00A99E" stroke-width="2" stroke-miterlimit="10" stroke-linecap="round" stroke-linejoin="round"/>
<path d="M495.267 81.0231L490.051 83.2578" stroke="#00A99E" stroke-width="2" stroke-miterlimit="10" stroke-linecap="round" stroke-linejoin="round"/>
<path d="M491.991 85.799L486.774 88.0337" stroke="#00A99E" stroke-width="2" stroke-miterlimit="10" stroke-linecap="round" stroke-linejoin="round"/>
<path d="M488.714 90.5752L483.493 92.8008" stroke="#00A99E" stroke-width="2" stroke-miterlimit="10" stroke-linecap="round" stroke-linejoin="round"/>
<path d="M488.551 80.1901L488.257 85.6867" stroke="#00A99E" stroke-width="2" stroke-miterlimit="10" stroke-linecap="round" stroke-linejoin="round"/>
<path d="M485.435 84.7293L485.142 90.2254" stroke="#00A99E" stroke-width="2" stroke-miterlimit="10" stroke-linecap="round" stroke-linejoin="round"/>
<path d="M89.1924 105.815V91.0283" stroke="#00A79E" stroke-width="2.03453" stroke-miterlimit="10" stroke-linecap="round" stroke-linejoin="round"/>
<path d="M421 105.815V91.0283" stroke="#00A79E" stroke-width="2.03453" stroke-miterlimit="10" stroke-linecap="round" stroke-linejoin="round"/>
<path d="M764 105.815V91.0283" stroke="#00A79E" stroke-width="2.03453" stroke-miterlimit="10" stroke-linecap="round" stroke-linejoin="round"/>
<path d="M798 106.137L798 96.1367" stroke="#00A79E" stroke-width="2.03453" stroke-miterlimit="10" stroke-linecap="round" stroke-linejoin="round"/>
<path d="M990 106.137L990 96.1367" stroke="#00A79E" stroke-width="2.03453" stroke-miterlimit="10" stroke-linecap="round" stroke-linejoin="round"/>
<path d="M1009 106.137L1009 96.1367" stroke="#00A79E" stroke-width="2.03453" stroke-miterlimit="10" stroke-linecap="round" stroke-linejoin="round"/>
<path d="M659 105.815V91.0283" stroke="#00A79E" stroke-width="2.03453" stroke-miterlimit="10" stroke-linecap="round" stroke-linejoin="round"/>
<path d="M338 105.815V91.0283" stroke="#00A79E" stroke-width="2.03453" stroke-miterlimit="10" stroke-linecap="round" stroke-linejoin="round"/>
<path d="M75.8057 105.497V96.3604" stroke="#00A79E" stroke-width="2.03453" stroke-miterlimit="10" stroke-linecap="round" stroke-linejoin="round"/>
<path d="M358 105.497V96.3604" stroke="#00A79E" stroke-width="2.03453" stroke-miterlimit="10" stroke-linecap="round" stroke-linejoin="round"/>
<path d="M596 105.497V96.3604" stroke="#00A79E" stroke-width="2.03453" stroke-miterlimit="10" stroke-linecap="round" stroke-linejoin="round"/>
<path d="M443 105.497V96.3604" stroke="#00A79E" stroke-width="2.03453" stroke-miterlimit="10" stroke-linecap="round" stroke-linejoin="round"/>
<path d="M99.1426 105.815V98.4214" stroke="#00A79E" stroke-width="2.03453" stroke-miterlimit="10" stroke-linecap="round" stroke-linejoin="round"/>
<path d="M16.1826 97.1323V105.309" stroke="#00A79E" stroke-width="2.03453" stroke-miterlimit="10" stroke-linecap="round" stroke-linejoin="round"/>
<path d="M27.4639 100.017V105.309" stroke="#00A79E" stroke-width="2.03453" stroke-miterlimit="10" stroke-linecap="round" stroke-linejoin="round"/>
<path opacity="0.56" d="M169.662 105.616C168.892 103.963 168.462 102.124 168.462 100.182C168.462 93.0779 174.201 87.3201 181.282 87.3201C183.359 87.3201 185.318 87.8198 187.055 88.7C189.693 82.3119 195.958 77.8203 203.277 77.8203C210.114 77.8203 216.029 81.744 218.933 87.4621C219.555 87.3712 220.189 87.3201 220.834 87.3201C227.915 87.3201 233.654 93.0779 233.654 100.182C233.654 102.124 233.224 103.963 232.454 105.616H169.662Z" fill="#00A79E"/>
<path d="M2.00004 106.137L1242 106.137" stroke="#00A79E" stroke-width="2.03453" stroke-miterlimit="10" stroke-linecap="round" stroke-linejoin="round"/>
<path d="M203.36 1.13672V11.8567" stroke="#00A99E" stroke-width="2" stroke-miterlimit="10" stroke-linecap="round" stroke-linejoin="round"/>
<path d="M208.72 6.49658H198" stroke="#00A99E" stroke-width="2" stroke-miterlimit="10" stroke-linecap="round" stroke-linejoin="round"/>
<path d="M532.36 72.1367V82.8567" stroke="#00A99E" stroke-width="2" stroke-miterlimit="10" stroke-linecap="round" stroke-linejoin="round"/>
<path d="M537.72 77.4966H527" stroke="#00A99E" stroke-width="2" stroke-miterlimit="10" stroke-linecap="round" stroke-linejoin="round"/>
<path d="M86.3604 34.1367V44.8567" stroke="#00A99E" stroke-width="2" stroke-miterlimit="10" stroke-linecap="round" stroke-linejoin="round"/>
<path d="M91.72 39.4966H81" stroke="#00A99E" stroke-width="2" stroke-miterlimit="10" stroke-linecap="round" stroke-linejoin="round"/>
<path d="M353.36 39.1367V49.8567" stroke="#00A99E" stroke-width="2" stroke-miterlimit="10" stroke-linecap="round" stroke-linejoin="round"/>
<path d="M358.72 44.4966H348" stroke="#00A99E" stroke-width="2" stroke-miterlimit="10" stroke-linecap="round" stroke-linejoin="round"/>
<path d="M721.36 83.1367V93.8567" stroke="#00A99E" stroke-width="2" stroke-miterlimit="10" stroke-linecap="round" stroke-linejoin="round"/>
<path d="M726.72 88.4966H716" stroke="#00A99E" stroke-width="2" stroke-miterlimit="10" stroke-linecap="round" stroke-linejoin="round"/>
<g opacity="0.51">
<path opacity="0.31" d="M1130.46 87.4616C1130.17 86.4768 1130 85.4418 1130 84.3564C1130 78.448 1134.79 73.6609 1140.7 73.6609C1141.45 73.6609 1142.18 73.7399 1142.89 73.8837C1144.86 66.8827 1151.28 61.7434 1158.92 61.7434C1160.05 61.7434 1161.14 61.8584 1162.2 62.0668C1165.85 53.8583 1174.08 48.1367 1183.64 48.1367C1196.59 48.1367 1207.09 58.6382 1207.09 71.5907C1207.09 72.403 1207.05 73.2008 1206.97 73.9915C1207.82 73.7759 1208.71 73.6537 1209.63 73.6537C1215.54 73.6537 1220.33 78.4408 1220.33 84.3492C1220.33 85.4274 1220.17 86.4696 1219.87 87.4544H1130.46V87.4616Z" fill="#00A79E"/>
</g>
<defs>
<clipPath id="clip0">
<rect width="60.11" height="68.02" fill="white" transform="translate(245 38.1367)"/>
</clipPath>
</defs>
</svg>

<svg width="1244" height="108" viewBox="0 0 1244 108" fill="none" xmlns="http://www.w3.org/2000/svg"><path d="M124.562 106.133V82.216m-3.378-6.956c0 4.014 3.379 7.268 3.379 7.268s3.379-3.254 3.379-7.269c0-4.014-3.379-7.268-3.379-7.268s-3.379 3.254-3.379 7.269zm7.895 7.898c-3.288 2.283-4.035 6.928-4.035 6.928s4.59.937 7.884-1.346c3.289-2.283 4.036-6.927 4.036-6.927s-4.596-.937-7.885 1.345zm0 10.942c-3.288 2.283-4.035 6.928-4.035 6.928s4.59.937 7.884-1.346c3.289-2.283 4.036-6.928 4.036-6.928s-4.596-.937-7.885 1.346zm-8.552-10.942c3.288 2.283 4.035 6.928 4.035 6.928s-4.59.937-7.884-1.346c-3.288-2.283-4.036-6.927-4.036-6.927s4.596-.937 7.885 1.345zm0 10.942c3.288 2.283 4.035 6.928 4.035 6.928s-4.59.937-7.884-1.346c-3.288-2.283-4.036-6.928-4.036-6.928s4.596-.937 7.885 1.346zm768.393 12.033V82.216m-3.379-6.956c0 4.014 3.379 7.268 3.379 7.268s3.379-3.254 3.379-7.269c0-4.014-3.379-7.268-3.379-7.268s-3.379 3.254-3.379 7.269zm7.896 7.898c-3.289 2.283-4.036 6.928-4.036 6.928s4.591.937 7.885-1.346c3.288-2.283 4.035-6.927 4.035-6.927s-4.596-.937-7.884 1.345zm0 10.942c-3.289 2.283-4.036 6.928-4.036 6.928s4.591.937 7.885-1.346c3.288-2.283 4.035-6.928 4.035-6.928s-4.596-.937-7.884 1.346zm-8.553-10.942c3.289 2.283 4.036 6.928 4.036 6.928s-4.59.937-7.885-1.346c-3.288-2.283-4.035-6.927-4.035-6.927s4.596-.937 7.884 1.345zm0 10.942c3.289 2.283 4.036 6.928 4.036 6.928s-4.59.937-7.885-1.346c-3.288-2.283-4.035-6.928-4.035-6.928s4.596-.937 7.884 1.346zm-839.09 11.209V57.146m-3.096-6.36c0 3.674 3.09 6.65 3.09 6.65s3.09-2.976 3.09-6.65c0-3.674-3.09-6.65-3.09-6.65s-3.09 2.976-3.09 6.65zm7.222 7.223c-3.01 2.09-3.69 6.331-3.69 6.331s4.2.858 7.212-1.232c3.01-2.09 3.69-6.331 3.69-6.331s-4.2-.858-7.211 1.232zm0 10.88c-3.01 2.09-3.69 6.331-3.69 6.331s4.2.858 7.212-1.232c3.01-2.09 3.69-6.331 3.69-6.331s-4.2-.858-7.211 1.232zm-7.816-10.88c3.01 2.09 3.69 6.331 3.69 6.331s-4.2.858-7.211-1.232-3.69-6.331-3.69-6.331 4.2-.858 7.21 1.232zm0 10.88c3.01 2.09 3.69 6.331 3.69 6.331s-4.2.858-7.211-1.232-3.69-6.331-3.69-6.331 4.2-.858 7.21 1.232zm7.816 11.827c-3.01 2.09-3.69 6.332-3.69 6.332s4.2.857 7.212-1.232c3.01-2.09 3.69-6.332 3.69-6.332s-4.2-.857-7.211 1.233zm-7.816 0c3.01 2.09 3.69 6.332 3.69 6.332s-4.2.857-7.211-1.232c-3.011-2.09-3.69-6.332-3.69-6.332s4.2-.857 7.21 1.233z" stroke="#00A79E" stroke-width="2.035" stroke-miterlimit="10" stroke-linecap="round" stroke-linejoin="round"/><g clip-path="url(#clip0)" stroke="#00A99E" stroke-width="2" stroke-miterlimit="10" stroke-linecap="round" stroke-linejoin="round"><path d="M262.7 50.277v54.88m-.4-33.42c9.002 0 16.3-7.298 16.3-16.3s-7.298-16.3-16.3-16.3-16.3 7.297-16.3 16.3c0 9.002 7.298 16.3 16.3 16.3zm31.53 8.25v25.12m-.19-13.29c5.782 0 10.47-4.688 10.47-10.47 0-5.782-4.688-10.47-10.47-10.47-5.782 0-10.47 4.688-10.47 10.47 0 5.782 4.688 10.47 10.47 10.47z"/></g><path opacity=".25" d="M474.303 105.911s25.166-5.409 15.331-50.864c0 0-27.518 16.354-15.331 50.864z" fill="#00A99E"/><path d="M475.263 103.893s20.298 2.015 25.272-34.37c-.009.005-25.035 5.615-25.272 34.37zm.854-.946c.651-.977 20.192-28.478 20.192-28.478m-4.187.82l-.284 5.492m3.429.242l-5.216 2.235m1.94 2.541l-5.217 2.235m1.94 2.541l-5.221 2.226m5.058-12.611l-.294 5.497m-2.822-.957l-.293 5.495" stroke="#00A99E" stroke-width="2" stroke-miterlimit="10" stroke-linecap="round" stroke-linejoin="round"/><path d="M89.192 105.815V91.028M421 105.815V91.028m343 14.787V91.028m34 15.109v-10m192 10v-10m19 10v-10m-350 9.678V91.028m-321 14.787V91.028M75.806 105.497V96.36M358 105.497V96.36m238 9.137V96.36m-153 9.137V96.36m-343.857 9.455v-7.394m-82.96-1.289v8.177m11.281-5.292v5.292" stroke="#00A79E" stroke-width="2.035" stroke-miterlimit="10" stroke-linecap="round" stroke-linejoin="round"/><path opacity=".56" d="M169.662 105.616a12.828 12.828 0 01-1.2-5.434c0-7.104 5.739-12.862 12.82-12.862 2.077 0 4.036.5 5.773 1.38 2.638-6.388 8.903-10.88 16.222-10.88 6.837 0 12.752 3.924 15.656 9.642a13.26 13.26 0 011.901-.142c7.081 0 12.82 5.758 12.82 12.862 0 1.942-.43 3.781-1.2 5.434h-62.792z" fill="#00A79E"/><path d="M2 106.137h1240" stroke="#00A79E" stroke-width="2.035" stroke-miterlimit="10" stroke-linecap="round" stroke-linejoin="round"/><path d="M203.36 1.137v10.72m5.36-5.36H198m334.36 65.64v10.72m5.36-5.36H527M86.36 34.137v10.72m5.36-5.36H81m272.36-.36v10.72m5.36-5.36H348m373.36 38.64v10.72m5.36-5.36H716" stroke="#00A99E" stroke-width="2" stroke-miterlimit="10" stroke-linecap="round" stroke-linejoin="round"/><g opacity=".51"><path opacity=".31" d="M1130.46 87.462c-.29-.985-.46-2.02-.46-3.106 0-5.908 4.79-10.695 10.7-10.695.75 0 1.48.079 2.19.223 1.97-7.001 8.39-12.14 16.03-12.14 1.13 0 2.22.114 3.28.323 3.65-8.209 11.88-13.93 21.44-13.93 12.95 0 23.45 10.501 23.45 23.454 0 .812-.04 1.61-.12 2.4a10.83 10.83 0 012.66-.337c5.91 0 10.7 4.787 10.7 10.695 0 1.078-.16 2.12-.46 3.105h-89.41v.008z" fill="#00A79E"/></g><defs><clipPath id="clip0"><path fill="#fff" transform="translate(245 38.137)" d="M0 0h60.11v68.02H0z"/></clipPath></defs></svg>
